dist/svgs/core-ui-icons/free/cil-bold.svg

<svg xmlns="http://www.w3.org/2000/svg" viewBox="0 0 512 512"><path d="M16 496h480V16H16zM48 48h416v416H48z"/><path d="M341.6 242.986A79.956 79.956 0 00280 112H112v32h40v224h-40v32h208a79.991 79.991 0 0021.6-157.014zM208 144h48a48 48 0 010 96h-48zm88 224h-88v-96h88a48 48 0 010 96z"/></svg>

<svg xmlns="http://www.w3.org/2000/svg" viewBox="0 0 512 512">
  <path fill="var(--ci-primary-color, currentColor)" d="M16,496H496V16H16ZM48,48H464V464H48Z" class="ci-primary"/>
  <path fill="var(--ci-primary-color, currentColor)" d="M341.6,242.986A79.956,79.956,0,0,0,280,112H112v32h40V368H112v32H320a79.991,79.991,0,0,0,21.6-157.014ZM208,144h48a48,48,0,0,1,0,96H208Zm88,224H208V272h88a48,48,0,0,1,0,96Z" class="ci-primary"/>
</svg>
